packages/core/src/svgs/ava.svg

<svg width="24" height="24" viewBox="0 0 24 24" fill="none" xmlns="http://www.w3.org/2000/svg">
<g clip-path="url(#clip0_31_6392)">
<path d="M0 0H24V24H0V0Z" fill="#393969"/>
<path d="M16.157 6.85693H7.18275C6.90846 6.85693 6.84846 7.03693 6.85275 7.12693V9.50122C6.84846 9.77551 7.05418 9.86122 7.15275 9.85693H10.2856V17.8541C10.2856 18.4669 10.8685 18.8484 11.2242 18.8484C11.807 18.8526 13.0456 18.8655 13.3113 18.8484C13.5813 18.8269 13.7142 18.5526 13.7142 18.4198V9.85693H16.8513C17.0656 9.85693 17.1342 9.64265 17.1385 9.54408C17.1385 9.38979 17.147 8.67408 17.1385 7.88979C17.1256 7.10979 16.5685 6.85693 16.1527 6.85693H16.157Z" fill="white"/>
</g>
<defs>
<clipPath id="clip0_31_6392">
<rect width="24" height="24" fill="white"/>
</clipPath>
</defs>
</svg>

<svg xmlns="http://www.w3.org/2000/svg" width="24" height="24" fill="none" viewBox="0 0 24 24"><g clip-path="url(#a)"><path fill="#393969" d="M0 0h24v24H0z"/><path fill="#fff" d="M16.157 6.857H7.183c-.275 0-.335.18-.33.27V9.5c-.005.275.201.36.3.356h3.133v7.997c0 .613.582.994.938.994.583.005 1.822.018 2.087 0 .27-.021.403-.295.403-.428V9.857h3.137c.215 0 .283-.214.288-.313 0-.154.008-.87 0-1.654-.013-.78-.57-1.033-.986-1.033z"/></g><defs><clipPath id="a"><path fill="#fff" d="M0 0h24v24H0z"/></clipPath></defs></svg>
